src/lib/packages/icons/src/assets/line/user-times-bottom.svg

<svg xmlns="http://www.w3.org/2000/svg" width="24" height="24" fill="none"><path fill="currentColor" d="M11.009 10.75a4.255 4.255 0 0 0 4.25-4.25 4.255 4.255 0 0 0-4.25-4.25 4.255 4.255 0 0 0-4.25 4.25 4.255 4.255 0 0 0 4.25 4.25Zm0-7a2.752 2.752 0 0 1 2.75 2.75 2.752 2.752 0 0 1-2.75 2.75 2.752 2.752 0 0 1-2.75-2.75 2.752 2.752 0 0 1 2.75-2.75ZM4.75 18.02c0 1.563.673 2.23 2.25 2.23h7a.75.75 0 0 1 0 1.5H7c-2.418 0-3.75-1.325-3.75-3.73 0-2.662 1.506-5.77 5.75-5.77h4c2.715 0 4.104 1.275 4.791 2.345a.75.75 0 1 1-1.262.81c-.706-1.098-1.894-1.655-3.529-1.655H9c-3.943 0-4.25 3.269-4.25 4.27Zm15.78 2.45a.75.75 0 0 1-1.06 1.061l-.97-.97-.97.97a.748.748 0 0 1-1.06 0 .75.75 0 0 1 0-1.061l.97-.97-.97-.97a.75.75 0 1 1 1.061-1.061l.97.97.97-.97a.75.75 0 0 1 1.061 1.061l-.97.97.968.97Z"/></svg>

<svg width="24" height="24" viewBox="0 0 24 24" fill="none" xmlns="http://www.w3.org/2000/svg">
<path d="M11.009 10.75C13.353 10.75 15.259 8.843 15.259 6.5C15.259 4.157 13.353 2.25 11.009 2.25C8.66503 2.25 6.75903 4.157 6.75903 6.5C6.75903 8.843 8.66503 10.75 11.009 10.75ZM11.009 3.75C12.526 3.75 13.759 4.983 13.759 6.5C13.759 8.017 12.526 9.25 11.009 9.25C9.49203 9.25 8.25903 8.017 8.25903 6.5C8.25903 4.983 9.49203 3.75 11.009 3.75ZM4.75 18.02C4.75 19.583 5.423 20.25 7 20.25H14C14.414 20.25 14.75 20.586 14.75 21C14.75 21.414 14.414 21.75 14 21.75H7C4.582 21.75 3.25 20.425 3.25 18.02C3.25 15.358 4.756 12.25 9 12.25H13C15.715 12.25 17.104 13.525 17.791 14.595C18.015 14.943 17.9139 15.407 17.5649 15.631C17.2159 15.855 16.7531 15.754 16.5291 15.405C15.8231 14.307 14.635 13.75 13 13.75H9C5.057 13.75 4.75 17.019 4.75 18.02ZM20.53 20.47C20.823 20.763 20.823 21.238 20.53 21.531C20.384 21.677 20.192 21.751 20 21.751C19.808 21.751 19.616 21.678 19.47 21.531L18.5 20.561L17.53 21.531C17.384 21.677 17.192 21.751 17 21.751C16.808 21.751 16.616 21.678 16.47 21.531C16.177 21.238 16.177 20.763 16.47 20.47L17.4399 19.5L16.47 18.53C16.177 18.237 16.177 17.762 16.47 17.469C16.763 17.176 17.238 17.176 17.531 17.469L18.501 18.439L19.4709 17.469C19.7639 17.176 20.239 17.176 20.532 17.469C20.825 17.762 20.825 18.237 20.532 18.53L19.562 19.5L20.53 20.47Z" fill="currentColor"/>
</svg>
